!!!COM: Palestrina, Giovanni Perluigi da
!!!OPR: Illumina oculos meos
!!!OTL: Agnus II
**kern	**kern	**kern	**kern	**kern	**kern
*Ibass	*Ibarit	*Itenor	*Itenor	*Icalto	*Icant
!Bassus	!Baritone	!Tenor 2	!Tenor 1	!Altus	!Cantus
*clefF4	*clefF4	*clefGv2	*clefGv2	*clefG2	*clefG2
*k[]	*k[]	*k[]	*k[]	*k[]	*k[]
*E:phr	*E:phr	*E:phr	*E:phr	*E:phr	*E:phr
*M4/2	*M4/2	*M4/2	*M4/2	*M4/2	*M4/2
=1	=1	=1	=1	=1	=1
0r	0r	0r	0r	0r	1.e
.	.	.	.	.	2e
=2	=2	=2	=2	=2	=2
0r	0r	1.A	0r	1.c	1e
.	.	.	.	.	1f
.	.	2A	.	2c	.
=3	=3	=3	=3	=3	=3
0r	1r	1A	0r	2.c	2e
.	.	.	.	.	1a
.	.	.	.	4d	.
.	[1E	1B	.	1e	.
.	.	.	.	.	2g#
=4	=4	=4	=4	=4	=4
1.AA	2E]	[0A	1.c	0e	[0a
.	2E	.	.	.	.
.	1E	.	.	.	.
2AA	.	.	2c	.	.
=5	=5	=5	=5	=5	=5
1AA	4F	1A]	1c	0r	1a]
.	4E	.	.	.	.
.	1A	.	.	.	.
1BB	.	1r	[1d	.	1r
.	2G#	.	.	.	.
=6	=6	=6	=6	=6	=6
0AA	1A	2r	2d]	1.e	1r
.	.	1A	4c	.	.
.	.	.	4B	.	.
.	1r	.	2.c	.	[1a
.	.	2A	.	2e	.
.	.	.	4B	.	.
=7	=7	=7	=7	=7	=7
0r	0r	1c	1A	1e	2a]
.	.	.	.	.	2a
.	.	1d	1D	1f#	1a
=8	=8	=8	=8	=8	=8
0r	0r	1G	2r	2.g	1b
.	.	.	1d	.	.
.	.	.	.	4f	.
.	.	1A	.	1e	[1a
.	.	.	2c#	.	.
=9	=9	=9	=9	=9	=9
1.D	1r	2F	[0d	1f	2a]
.	.	2D	.	.	2a
.	[1A	2.F	.	2r	2f
2D	.	.	.	2f	2d
.	.	4G	.	.	.
=10	=10	=10	=10	=10	=10
1D	2A]	2A	1d]	2d	2.f
.	2A	2D	.	2.f	.
.	.	.	.	.	4g
1F	1A	1r	1c	.	[1a
.	.	.	.	4e	.
.	.	.	.	4c	.
.	.	.	.	4d	.
=11	=11	=11	=11	=11	=11
0E	1c	0r	2r	0e	2a]
.	.	.	2.e	.	4g
.	.	.	.	.	4f#
.	1B	.	.	.	1g#
.	.	.	4d	.	.
.	.	.	2B	.	.
=12	=12	=12	=12	=12	=12
[0AA	0A	2r	2.c	0e	1a
.	.	2A	.	.	.
.	.	.	4B	.	.
.	.	1c	4A	.	2r
.	.	.	4B	.	.
.	.	.	4c	.	2a
.	.	.	4d	.	.
=13	=13	=13	=13	=13	=13
0AA]	2r	4A	0e	0r	1cc
.	.	4B	.	.	.
.	2A	4c	.	.	.
.	.	4d	.	.	.
.	1c	1e	.	.	2a
.	.	.	.	.	[2cc
=14	=14	=14	=14	=14	=14
0r	2A	2e	2r	0r	4cc]
.	.	.	.	.	4b
.	2.c	1e	2A	.	2a
.	.	.	1c	.	2g
.	4B	.	.	.	.
.	2A	2c	.	.	[2f
=15	=15	=15	=15	=15	=15
0r	2G	2d	2B	0r	4f]
.	.	.	.	.	4e
.	2A	4c	2.c	.	1e
.	.	4B	.	.	.
.	1F	1A	.	.	.
.	.	.	4B	.	.
.	.	.	2A	.	2d
=16	=16	=16	=16	=16	=16
1r	[0E	1B	2.G	2r	0e
.	.	.	.	2e	.
.	.	.	4A	.	.
2r	.	1r	2B	1g	.
2E	.	.	2c	.	.
=17	=17	=17	=17	=17	=17
1G	0E]	1r	1B	2e	0r
.	.	.	.	2.g	.
2E	.	2r	1B	.	.
.	.	.	.	4f	.
[2G	.	2E	.	2e	.
=18	=18	=18	=18	=18	=18
4G]	0r	1G	1r	2d	0r
4F	.	.	.	.	.
2E	.	.	.	2c	.
2D	.	2F	2r	2B	.
2C	.	2E	2c	[2A	.
=19	=19	=19	=19	=19	=19
1BB	1r	1D	1d	2A]	1b
.	.	.	.	2G#	.
[1AA	2r	2E	[1c	[1A	1cc
.	2A	2e	.	.	.
=20	=20	=20	=20	=20	=20
0AA]	1c	1e	2c]	1A]	2a
.	.	.	2A	.	2.cc
.	2A	2c	2e	1r	.
.	.	.	.	.	4b
.	[2c	[2e	2A	.	2a
=21	=21	=21	=21	=21	=21
0r	4c]	4e]	1c	2r	2g
.	4B	4d	.	.	.
.	2A	2c	.	2e	2a
.	4G	2d	1B	1g	2b
.	4F	.	.	.	.
.	4E	[2e	.	.	2b
.	4D	.	.	.	.
=22	=22	=22	=22	=22	=22
0r	2.C	4e]	2.c	2e	2r
.	.	4d	.	.	.
.	.	1c	.	2.g	2e
.	4D	.	8B	.	.
.	.	.	8A	.	.
.	2.E	.	1G	.	[1g
.	.	.	.	4f	.
.	.	4B	.	2e	.
.	4F	4A	.	.	.
=23	=23	=23	=23	=23	=23
0r	2G	2B	1r	2d	2g]
.	2A	1A	.	2c	2e
.	1E	.	2r	1B	[1e
.	.	2G#	2B	.	.
=24	=24	=24	=24	=24	=24
1AA	0A	1A	1c	1A	1e]
1F	.	2r	2A	1r	1a
.	.	2A	2c	.	.
=25	=25	=25	=25	=25	=25
2D	2r	1d	2B	0r	2.f
2.F	2D	.	2.A	.	.
.	.	.	.	.	4g
.	1F	2c	.	.	2.a
4E	.	.	4G	.	.
2D	.	2d	2F	.	.
.	.	.	.	.	4b
=26	=26	=26	=26	=26	=26
2C	1G	2e	4E	0r	2cc
.	.	.	4F	.	.
2BB	.	2d	1G	.	2g
1AA	1A	2c	.	.	1cc
.	.	2A	2F#	.	.
=27	=27	=27	=27	=27	=27
[0GG	1D	1B	0G	2r	0b
.	.	.	.	1g	.
.	2r	2r	.	.	.
.	[2G	[2B	.	2g	.
=28	=28	=28	=28	=28	=28
0GG]	2G]	2B]	1r	1g	2r
.	2G	2B	.	.	1dd
.	1G	1B	2r	1d	.
.	.	.	[2d	.	2dd
=29	=29	=29	=29	=29	=29
2r	1D	1A	2d]	1f	1dd
1D	.	.	2d	.	.
.	[1F	2r	1d	2.f	1a
2D	.	[2A	.	.	.
.	.	.	.	4e	.
=30	=30	=30	=30	=30	=30
1D	1F]	2A]	1A	4d	1dd
.	.	.	.	4c	.
.	.	2A	.	2d	.
1AA	1E	1A	[1c	[1e	2cc
.	.	.	.	.	[2cc
=31	=31	=31	=31	=31	=31
0C	2r	1E	1c]	1e]	2cc]
.	1G	.	.	.	2cc
.	.	1e	1G	2r	2cc
.	2G	.	.	[2g	2cc
=32	=32	=32	=32	=32	=32
0GG	1G	0d	2r	2g]	1b
.	.	.	2G	2g	.
.	1D	.	2A	2.f	[1a
.	.	.	2D	.	.
.	.	.	.	4e	.
=33	=33	=33	=33	=33	=33
0r	2.F	0r	4D	2d	1a]
.	.	.	4E	.	.
.	.	.	4F	2c	.
.	4E	.	4G	.	.
.	2D	.	2A	2f	2r
.	2C	.	[2c	[2e	[2a
=34	=34	=34	=34	=34	=34
0r	1F	1r	2c]	2e]	2a]
.	.	.	4B	2d	2a
.	.	.	4A	.	.
.	1E	2r	1B	2e	1g#
.	.	[2e	.	2B	.
=35	=35	=35	=35	=35	=35
0r	2r	2e]	1A	2.c	1a
.	1A	2e	.	.	.
.	.	.	.	4d	.
.	.	1c	1r	2e	[1cc
.	2A	.	.	2f	.
=36	=36	=36	=36	=36	=36
1r	1G	0d	0r	1g	2cc]
.	.	.	.	.	2b
[1D	[1A	.	.	1f	2.a
.	.	.	.	.	4g
=37	=37	=37	=37	=37	=37
2D]	1A]	2r	0r	1d	2f
2D	.	1f	.	.	2.a
1C	1c	.	.	1r	.
.	.	.	.	.	4g
.	.	2e	.	.	[2g
=38	=38	=38	=38	=38	=38
1D	2B	2.d	0r	0r	2g]
.	1A	.	.	.	2f
.	.	4c	.	.	.
1E	.	1B	.	.	2.e
.	2G#	.	.	.	.
.	.	.	.	.	4d
=39	=39	=39	=39	=39	=39
2.F	2.A	1A	2r	1r	1c
.	.	.	1A	.	.
4E	4G	.	.	.	.
2.D	2.F	1r	.	2r	1d
.	.	.	2A	[2d	.
4C	4E	.	.	.	.
=40	=40	=40	=40	=40	=40
1BB	1D	1r	1G#	2d]	0r
.	.	.	.	2d	.
1AA	1E	2r	1A	1c	.
.	.	[2A	.	.	.
=41	=41	=41	=41	=41	=41
2r	1D	2A]	2.F	1d	1r
2D	.	2A	.	.	.
.	.	.	4E	.	.
2D	1r	2A	4D	2.f	[1a
.	.	.	4E	.	.
[2D	.	2A	4F	.	.
.	.	.	4G	4e	.
=42	=42	=42	=42	=42	=42
2D]	0r	2F	2A	2d	2a]
2AA	.	1E	2.e	2c	2a
1E	.	.	.	1B	1g#
.	.	.	4d	.	.
.	.	[2e	2B	.	.
=43	=43	=43	=43	=43	=43
0AA	2r	2e]	1c	4A	1a
.	.	.	.	4B	.
.	1A	2e	.	4c	.
.	.	.	.	4d	.
.	.	1c	1A	4e	[1cc
.	.	.	.	4d	.
.	2A	.	.	4e	.
.	.	.	.	4f	.
=44	=44	=44	=44	=44	=44
0r	1G	2d	0r	1g	2cc]
.	.	2.e	.	.	2b
.	1A	.	.	1e	[1a
.	.	4d	.	.	.
.	.	4c	.	.	.
.	.	4B	.	.	.
=45	=45	=45	=45	=45	=45
0r	2.c	2A	0r	2.e	2a]
.	.	2E	.	.	2g
.	4B	.	.	4d	.
.	2A	2F	.	2c	2f
.	2G	2G	.	2B	[2e
=46	=46	=46	=46	=46	=46
0r	0F	1A	2r	1c	2e]
.	.	.	1A	.	4d
.	.	.	.	.	4c
.	.	1r	.	1A	1d
.	.	.	2A	.	.
=47	=47	=47	=47	=47	=47
1r	[0E	2r	1G#	1B	0e
.	.	1e	.	.	.
[1AA	.	.	1A	2.c	.
.	.	2c	.	.	.
.	.	.	.	4d	.
=48	=48	=48	=48	=48	=48
2AA]	0E]	2A	1c	[0e	1a
2AA	.	2A	.	.	.
1GG#	.	2r	1B	.	1b
.	.	[2e	.	.	.
=49	=49	=49	=49	=49	=49
1AA	[0E	2e]	1A	0e]	1.cc
.	.	2c	.	.	.
2.C	.	[1c	1G	.	.
.	.	.	.	.	2g
4BB	.	.	.	.	.
=50	=50	=50	=50	=50	=50
2AA	0E]	2c]	2r	[0e	2a
2GG#	.	2B	2E	.	2b
[1AA	.	[1A	2E	.	2.cc
.	.	.	[2c	.	.
.	.	.	.	.	4b
=51	=51	=51	=51	=51	=51
0AA]	[0E	0A]	2c]	1e_	0a
.	.	.	2A	.	.
.	.	.	1c	1e_	.
=52	=52	=52	=52	=52	=52
0EE	0E]	0G#	0B	0e]	0b
==	==	==	==	==	==
*-	*-	*-	*-	*-	*-
!!!CDT: 1525/^1526/-1594/2/2
!!!OCY: Italia
!!!AGN: Mass (Parody)
!!!AST: renaissance, vocal
!!!ASW: Motet (Silva)
!!!PWK: Masses, Book 10
!!!RNB: Cadence finals: G,C,A
!!!YOR: Le Opere Complete, v. 27, p. 155
!!!YOO: Rome, Italy: Fratelli Scalera
!!!END: 1992//
!!!EED: John Miller
!!!YEC: Copyright 2000, John Miller
!!!YEN: United States of America
!!!YEM: Rights to all derivative electronic formats reserved.
!!!YEM: Refer to licensing agreement for further details.
!!!YEM: This file must be accompanied by the licensing agreement.
!!!YEM: A copy of the licensing agreement may be found at http://www.music-cog.ohio-state.edu/HumdrumDatabases/Palestrina/license.txt
!!!EMD: converted to Humdrum by Bret Aarden
